app/assets/images/icons/active/pen--line.svg

<?xml version="1.0" encoding="UTF-8" standalone="no"?>
<svg width="32px" height="232px" viewBox="0 0 32 232" version="1.1" xmlns="http://www.w3.org/2000/svg" xmlns:xlink="http://www.w3.org/1999/xlink" xmlns:sketch="http://www.bohemiancoding.com/sketch/ns">
    <title>pen--line</title>
    <description>Created with Sketch (http://www.bohemiancoding.com/sketch)</description>
    <defs></defs>
    <g id="Actions" stroke="none" stroke-width="1" fill="none" fill-rule="evenodd" sketch:type="MSPage">
        <path d="M14.7795462,131.696442 C16.6985462,133.794442 18.7645462,135.747442 20.7785462,137.751442 C22.3855462,136.679442 24.1395462,135.292442 25.8875462,133.976442 C26.3695462,133.612442 27.1205462,132.838442 27.7215462,132.863442 C28.1785462,132.883442 28.4895462,133.276442 28.4985462,133.643442 C28.5195462,134.310442 27.3225462,135.013442 26.7765462,135.420442 C25.3565462,136.474442 24.3135462,137.265442 22.8325462,138.363442 C22.3125462,138.749442 21.3395462,139.706442 20.7215462,139.695442 C19.9365462,139.685442 19.7235462,138.728442 19.1675462,138.476442 C18.1415462,140.093442 17.1235462,141.853442 16.0015462,143.640442 C15.7375462,144.057442 15.2855462,144.996442 14.8895462,145.251442 C14.3255462,145.612442 12.8625462,145.853442 12.1115462,146.085442 C9.88354618,146.774442 7.73954618,147.404442 5.50354618,148.470442 C5.09654618,148.665442 4.56554618,149.043442 4.28154618,149.028442 C4.01254618,149.015442 3.54154618,148.708442 3.50254618,148.307442 C3.46554618,147.933442 3.84054618,147.475442 4.05854618,147.029442 C5.29754618,144.483442 5.99054618,141.766442 6.83454618,138.974442 C6.97354618,138.519442 7.10854618,137.902442 7.28154618,137.642442 C7.57254618,137.191442 8.52054618,136.793442 8.94754618,136.529442 C10.6905462,135.451442 12.3085462,134.399442 14.0035462,133.418442 C13.8715462,132.716442 12.8945462,132.697442 12.8335462,131.864442 C12.7955462,131.310442 13.6745462,130.344442 14.1115462,129.753442 C14.9895462,128.569442 16.1705462,127.101442 17.0555462,125.919442 C17.4615462,125.380442 18.1295462,124.075442 18.7785462,124.031442 C19.2875462,123.998442 19.6305462,124.442442 19.6665462,124.696442 C19.7685462,125.405442 18.9205462,126.102442 18.5545462,126.586442 C17.2425462,128.331442 16.0365462,130.000442 14.7795462,131.696442 C14.7795462,131.696442 16.0365462,130.000442 14.7795462,131.696442 L14.7795462,131.696442 L14.7795462,131.696442 Z M15.2235462,134.531442 C13.0665462,135.927442 10.8435462,137.261442 8.66854618,138.641442 C8.09154618,140.654442 7.43854618,142.594442 6.78054618,144.528442 C8.30454618,143.182442 9.92154618,141.450442 11.4445462,139.918442 C11.3775462,137.757442 14.5165462,138.431442 13.9455462,140.252442 C13.8005462,140.714442 13.2815462,141.148442 12.6125462,141.084442 C11.2555462,142.361442 9.79954618,143.897442 8.50254618,145.195442 C8.33154618,145.366442 8.02254618,145.499442 8.05754618,145.752442 C9.94454618,145.064442 11.8915462,144.437442 13.8875462,143.861442 C15.2545462,141.656442 16.6365462,139.464442 18.0015462,137.253442 C17.0415462,136.377442 16.1805462,135.405442 15.2235462,134.531442 L15.2235462,134.531442 Z M15.2235462,134.531442" id="pen-line--lp-blue" fill="#206FAC" sketch:type="MSShapeGroup"></path>
        <path d="M14.7795462,91.6964415 C16.6985462,93.7944415 18.7645462,95.7474415 20.7785462,97.7514415 C22.3855462,96.6794415 24.1395462,95.2924415 25.8875462,93.9764415 C26.3695462,93.6124415 27.1205462,92.8384415 27.7215462,92.8634415 C28.1785462,92.8834415 28.4895462,93.2764415 28.4985462,93.6434415 C28.5195462,94.3104415 27.3225462,95.0134415 26.7765462,95.4204415 C25.3565462,96.4744415 24.3135462,97.2654415 22.8325462,98.3634415 C22.3125462,98.7494415 21.3395462,99.7064415 20.7215462,99.6954415 C19.9365462,99.6854415 19.7235462,98.7284415 19.1675462,98.4764415 C18.1415462,100.093442 17.1235462,101.853442 16.0015462,103.640442 C15.7375462,104.057442 15.2855462,104.996442 14.8895462,105.251442 C14.3255462,105.612442 12.8625462,105.853442 12.1115462,106.085442 C9.88354618,106.774442 7.73954618,107.404442 5.50354618,108.470442 C5.09654618,108.665442 4.56554618,109.043442 4.28154618,109.028442 C4.01254618,109.015442 3.54154618,108.708442 3.50254618,108.307442 C3.46554618,107.933442 3.84054618,107.475442 4.05854618,107.029442 C5.29754618,104.483442 5.99054618,101.766442 6.83454618,98.9744415 C6.97354618,98.5194415 7.10854618,97.9024415 7.28154618,97.6424415 C7.57254618,97.1914415 8.52054618,96.7934415 8.94754618,96.5294415 C10.6905462,95.4514415 12.3085462,94.3994415 14.0035462,93.4184415 C13.8715462,92.7164415 12.8945462,92.6974415 12.8335462,91.8644415 C12.7955462,91.3104415 13.6745462,90.3444415 14.1115462,89.7534415 C14.9895462,88.5694415 16.1705462,87.1014415 17.0555462,85.9194415 C17.4615462,85.3804415 18.1295462,84.0754415 18.7785462,84.0314415 C19.2875462,83.9984415 19.6305462,84.4424415 19.6665462,84.6964415 C19.7685462,85.4054415 18.9205462,86.1024415 18.5545462,86.5864415 C17.2425462,88.3314415 16.0365462,90.0004415 14.7795462,91.6964415 C14.7795462,91.6964415 16.0365462,90.0004415 14.7795462,91.6964415 L14.7795462,91.6964415 L14.7795462,91.6964415 Z M15.2235462,94.5314415 C13.0665462,95.9274415 10.8435462,97.2614415 8.66854618,98.6414415 C8.09154618,100.654442 7.43854618,102.594442 6.78054618,104.528442 C8.30454618,103.182442 9.92154618,101.450442 11.4445462,99.9184415 C11.3775462,97.7574415 14.5165462,98.4314415 13.9455462,100.252442 C13.8005462,100.714442 13.2815462,101.148442 12.6125462,101.084442 C11.2555462,102.361442 9.79954618,103.897442 8.50254618,105.195442 C8.33154618,105.366442 8.02254618,105.499442 8.05754618,105.752442 C9.94454618,105.064442 11.8915462,104.437442 13.8875462,103.861442 C15.2545462,101.656442 16.6365462,99.4644415 18.0015462,97.2534415 C17.0415462,96.3774415 16.1805462,95.4054415 15.2235462,94.5314415 L15.2235462,94.5314415 Z M15.2235462,94.5314415" id="pen-line--white" fill="#FFFFFF" sketch:type="MSShapeGroup"></path>
        <path d="M14.7795462,51.6964415 C16.6985462,53.7944415 18.7645462,55.7474415 20.7785462,57.7514415 C22.3855462,56.6794415 24.1395462,55.2924415 25.8875462,53.9764415 C26.3695462,53.6124415 27.1205462,52.8384415 27.7215462,52.8634415 C28.1785462,52.8834415 28.4895462,53.2764415 28.4985462,53.6434415 C28.5195462,54.3104415 27.3225462,55.0134415 26.7765462,55.4204415 C25.3565462,56.4744415 24.3135462,57.2654415 22.8325462,58.3634415 C22.3125462,58.7494415 21.3395462,59.7064415 20.7215462,59.6954415 C19.9365462,59.6854415 19.7235462,58.7284415 19.1675462,58.4764415 C18.1415462,60.0934415 17.1235462,61.8534415 16.0015462,63.6404415 C15.7375462,64.0574415 15.2855462,64.9964415 14.8895462,65.2514415 C14.3255462,65.6124415 12.8625462,65.8534415 12.1115462,66.0854415 C9.88354618,66.7744415 7.73954618,67.4044415 5.50354618,68.4704415 C5.09654618,68.6654415 4.56554618,69.0434415 4.28154618,69.0284415 C4.01254618,69.0154415 3.54154618,68.7084415 3.50254618,68.3074415 C3.46554618,67.9334415 3.84054618,67.4754415 4.05854618,67.0294415 C5.29754618,64.4834415 5.99054618,61.7664415 6.83454618,58.9744415 C6.97354618,58.5194415 7.10854618,57.9024415 7.28154618,57.6424415 C7.57254618,57.1914415 8.52054618,56.7934415 8.94754618,56.5294415 C10.6905462,55.4514415 12.3085462,54.3994415 14.0035462,53.4184415 C13.8715462,52.7164415 12.8945462,52.6974415 12.8335462,51.8644415 C12.7955462,51.3104415 13.6745462,50.3444415 14.1115462,49.7534415 C14.9895462,48.5694415 16.1705462,47.1014415 17.0555462,45.9194415 C17.4615462,45.3804415 18.1295462,44.0754415 18.7785462,44.0314415 C19.2875462,43.9984415 19.6305462,44.4424415 19.6665462,44.6964415 C19.7685462,45.4054415 18.9205462,46.1024415 18.5545462,46.5864415 C17.2425462,48.3314415 16.0365462,50.0004415 14.7795462,51.6964415 C14.7795462,51.6964415 16.0365462,50.0004415 14.7795462,51.6964415 L14.7795462,51.6964415 L14.7795462,51.6964415 Z M15.2235462,54.5314415 C13.0665462,55.9274415 10.8435462,57.2614415 8.66854618,58.6414415 C8.09154618,60.6544415 7.43854618,62.5944415 6.78054618,64.5284415 C8.30454618,63.1824415 9.92154618,61.4504415 11.4445462,59.9184415 C11.3775462,57.7574415 14.5165462,58.4314415 13.9455462,60.2524415 C13.8005462,60.7144415 13.2815462,61.1484415 12.6125462,61.0844415 C11.2555462,62.3614415 9.79954618,63.8974415 8.50254618,65.1954415 C8.33154618,65.3664415 8.02254618,65.4994415 8.05754618,65.7524415 C9.94454618,65.0644415 11.8915462,64.4374415 13.8875462,63.8614415 C15.2545462,61.6564415 16.6365462,59.4644415 18.0015462,57.2534415 C17.0415462,56.3774415 16.1805462,55.4054415 15.2235462,54.5314415 L15.2235462,54.5314415 Z M15.2235462,54.5314415" id="pen-line--body-grey" fill="#67737B" sketch:type="MSShapeGroup"></path>
        <path d="M14.7795462,11.6964415 C16.6985462,13.7944415 18.7645462,15.7474415 20.7785462,17.7514415 C22.3855462,16.6794415 24.1395462,15.2924415 25.8875462,13.9764415 C26.3695462,13.6124415 27.1205462,12.8384415 27.7215462,12.8634415 C28.1785462,12.8834415 28.4895462,13.2764415 28.4985462,13.6434415 C28.5195462,14.3104415 27.3225462,15.0134415 26.7765462,15.4204415 C25.3565462,16.4744415 24.3135462,17.2654415 22.8325462,18.3634415 C22.3125462,18.7494415 21.3395462,19.7064415 20.7215462,19.6954415 C19.9365462,19.6854415 19.7235462,18.7284415 19.1675462,18.4764415 C18.1415462,20.0934415 17.1235462,21.8534415 16.0015462,23.6404415 C15.7375462,24.0574415 15.2855462,24.9964415 14.8895462,25.2514415 C14.3255462,25.6124415 12.8625462,25.8534415 12.1115462,26.0854415 C9.88354618,26.7744415 7.73954618,27.4044415 5.50354618,28.4704415 C5.09654618,28.6654415 4.56554618,29.0434415 4.28154618,29.0284415 C4.01254618,29.0154415 3.54154618,28.7084415 3.50254618,28.3074415 C3.46554618,27.9334415 3.84054618,27.4754415 4.05854618,27.0294415 C5.29754618,24.4834415 5.99054618,21.7664415 6.83454618,18.9744415 C6.97354618,18.5194415 7.10854618,17.9024415 7.28154618,17.6424415 C7.57254618,17.1914415 8.52054618,16.7934415 8.94754618,16.5294415 C10.6905462,15.4514415 12.3085462,14.3994415 14.0035462,13.4184415 C13.8715462,12.7164415 12.8945462,12.6974415 12.8335462,11.8644415 C12.7955462,11.3104415 13.6745462,10.3444415 14.1115462,9.75344152 C14.9895462,8.56944152 16.1705462,7.10144152 17.0555462,5.91944152 C17.4615462,5.38044152 18.1295462,4.07544152 18.7785462,4.03144152 C19.2875462,3.99844152 19.6305462,4.44244152 19.6665462,4.69644152 C19.7685462,5.40544152 18.9205462,6.10244152 18.5545462,6.58644152 C17.2425462,8.33144152 16.0365462,10.0004415 14.7795462,11.6964415 C14.7795462,11.6964415 16.0365462,10.0004415 14.7795462,11.6964415 L14.7795462,11.6964415 L14.7795462,11.6964415 Z M15.2235462,14.5314415 C13.0665462,15.9274415 10.8435462,17.2614415 8.66854618,18.6414415 C8.09154618,20.6544415 7.43854618,22.5944415 6.78054618,24.5284415 C8.30454618,23.1824415 9.92154618,21.4504415 11.4445462,19.9184415 C11.3775462,17.7574415 14.5165462,18.4314415 13.9455462,20.2524415 C13.8005462,20.7144415 13.2815462,21.1484415 12.6125462,21.0844415 C11.2555462,22.3614415 9.79954618,23.8974415 8.50254618,25.1954415 C8.33154618,25.3664415 8.02254618,25.4994415 8.05754618,25.7524415 C9.94454618,25.0644415 11.8915462,24.4374415 13.8875462,23.8614415 C15.2545462,21.6564415 16.6365462,19.4644415 18.0015462,17.2534415 C17.0415462,16.3774415 16.1805462,15.4054415 15.2235462,14.5314415 L15.2235462,14.5314415 Z M15.2235462,14.5314415" id="pen-line--title-grey" fill="#3A434E" sketch:type="MSShapeGroup"></path>
    </g>
</svg>

<svg width="32" height="232" viewBox="0 0 32 232" xmlns="http://www.w3.org/2000/svg" xmlns:sketch="http://www.bohemiancoding.com/sketch/ns"><title>pen--line</title><g sketch:type="MSPage" fill="none"><path d="M14.78 131.696c1.919 2.098 3.985 4.051 5.999 6.055 1.607-1.072 3.361-2.459 5.109-3.775.482-.364 1.233-1.138 1.834-1.113.457.02.768.413.777.78.021.667-1.176 1.37-1.722 1.777l-3.944 2.943c-.52.386-1.493 1.343-2.111 1.332-.785-.01-.998-.967-1.554-1.219-1.026 1.617-2.044 3.377-3.166 5.164-.264.417-.716 1.356-1.112 1.611-.564.361-2.027.602-2.778.834-2.228.689-4.372 1.319-6.608 2.385-.407.195-.938.573-1.222.558-.269-.013-.74-.32-.779-.721-.037-.374.338-.832.556-1.278 1.239-2.546 1.932-5.263 2.776-8.055.139-.455.274-1.072.447-1.332.291-.451 1.239-.849 1.666-1.113 1.743-1.078 3.361-2.13 5.056-3.111-.132-.702-1.109-.721-1.17-1.554-.038-.554.841-1.52 1.278-2.111.878-1.184 2.059-2.652 2.944-3.834.406-.539 1.074-1.844 1.723-1.888.509-.033.852.411.888.665.102.709-.746 1.406-1.112 1.89-1.312 1.745-2.518 3.414-3.775 5.11zm.444 2.835c-2.157 1.396-4.38 2.73-6.555 4.11-.577 2.013-1.23 3.953-1.888 5.887 1.524-1.346 3.141-3.078 4.664-4.61-.067-2.161 3.072-1.487 2.501.334-.145.462-.664.896-1.333.832-1.357 1.277-2.813 2.813-4.11 4.111-.171.171-.48.304-.445.557 1.887-.688 3.834-1.315 5.83-1.891 1.367-2.205 2.749-4.397 4.114-6.608l-2.778-2.722zm0 0" fill="#206FAC" sketch:type="MSShapeGroup"/><path d="M14.78 91.696c1.919 2.098 3.985 4.051 5.999 6.055 1.607-1.072 3.361-2.459 5.109-3.775.482-.364 1.233-1.138 1.834-1.113.457.02.768.413.777.78.021.667-1.176 1.37-1.722 1.777l-3.944 2.943c-.52.386-1.493 1.343-2.111 1.332-.785-.01-.998-.967-1.554-1.219-1.026 1.617-2.044 3.377-3.166 5.164-.264.417-.716 1.356-1.112 1.611-.564.361-2.027.602-2.778.834-2.228.689-4.372 1.319-6.608 2.385-.407.195-.938.573-1.222.558-.269-.013-.74-.32-.779-.721-.037-.374.338-.832.556-1.278 1.239-2.546 1.932-5.263 2.776-8.055.139-.455.274-1.072.447-1.332.291-.451 1.239-.849 1.666-1.113 1.743-1.078 3.361-2.13 5.056-3.111-.132-.702-1.109-.721-1.17-1.554-.038-.554.841-1.52 1.278-2.111.878-1.184 2.059-2.652 2.944-3.834.406-.539 1.074-1.844 1.723-1.888.509-.033.852.411.888.665.102.709-.746 1.406-1.112 1.89-1.312 1.745-2.518 3.414-3.775 5.11zm.444 2.835c-2.157 1.396-4.38 2.73-6.555 4.11-.577 2.013-1.23 3.953-1.888 5.887 1.524-1.346 3.141-3.078 4.664-4.61-.067-2.161 3.072-1.487 2.501.334-.145.462-.664.896-1.333.832-1.357 1.277-2.813 2.813-4.11 4.111-.171.171-.48.304-.445.557 1.887-.688 3.834-1.315 5.83-1.891 1.367-2.205 2.749-4.397 4.114-6.608l-2.778-2.722zm0 0" fill="#fff" sketch:type="MSShapeGroup"/><path d="M14.78 51.696c1.919 2.098 3.985 4.051 5.999 6.055 1.607-1.072 3.361-2.459 5.109-3.775.482-.364 1.233-1.138 1.834-1.113.457.02.768.413.777.78.021.667-1.176 1.37-1.722 1.777l-3.944 2.943c-.52.386-1.493 1.343-2.111 1.332-.785-.01-.998-.967-1.554-1.219-1.026 1.617-2.044 3.377-3.166 5.164-.264.417-.716 1.356-1.112 1.611-.564.361-2.027.602-2.778.834-2.228.689-4.372 1.319-6.608 2.385-.407.195-.938.573-1.222.558-.269-.013-.74-.32-.779-.721-.037-.374.338-.832.556-1.278 1.239-2.546 1.932-5.263 2.776-8.055.139-.455.274-1.072.447-1.332.291-.451 1.239-.849 1.666-1.113 1.743-1.078 3.361-2.13 5.056-3.111-.132-.702-1.109-.721-1.17-1.554-.038-.554.841-1.52 1.278-2.111.878-1.184 2.059-2.652 2.944-3.834.406-.539 1.074-1.844 1.723-1.888.509-.033.852.411.888.665.102.709-.746 1.406-1.112 1.89-1.312 1.745-2.518 3.414-3.775 5.11zm.444 2.835c-2.157 1.396-4.38 2.73-6.555 4.11-.577 2.013-1.23 3.953-1.888 5.887 1.524-1.346 3.141-3.078 4.664-4.61-.067-2.161 3.072-1.487 2.501.334-.145.462-.664.896-1.333.832-1.357 1.277-2.813 2.813-4.11 4.111-.171.171-.48.304-.445.557 1.887-.688 3.834-1.315 5.83-1.891 1.367-2.205 2.749-4.397 4.114-6.608l-2.778-2.722zm0 0" fill="#67737B" sketch:type="MSShapeGroup"/><path d="M14.78 11.696c1.919 2.098 3.985 4.051 5.999 6.055 1.607-1.072 3.361-2.459 5.109-3.775.482-.364 1.233-1.138 1.834-1.113.457.02.768.413.777.78.021.667-1.176 1.37-1.722 1.777l-3.944 2.943c-.52.386-1.493 1.343-2.111 1.332-.785-.01-.998-.967-1.554-1.219-1.026 1.617-2.044 3.377-3.166 5.164-.264.417-.716 1.356-1.112 1.611-.564.361-2.027.602-2.778.834-2.228.689-4.372 1.319-6.608 2.385-.407.195-.938.573-1.222.558-.269-.013-.74-.32-.779-.721-.037-.374.338-.832.556-1.278 1.239-2.546 1.932-5.263 2.776-8.055.139-.455.274-1.072.447-1.332.291-.451 1.239-.849 1.666-1.113 1.743-1.078 3.361-2.13 5.056-3.111-.132-.702-1.109-.721-1.17-1.554-.038-.554.841-1.52 1.278-2.111.878-1.184 2.059-2.652 2.944-3.834.406-.539 1.074-1.844 1.723-1.888.509-.033.852.411.888.665.102.709-.746 1.406-1.112 1.89-1.312 1.745-2.518 3.414-3.775 5.11zm.444 2.835c-2.157 1.396-4.38 2.73-6.555 4.11-.577 2.013-1.23 3.953-1.888 5.887 1.524-1.346 3.141-3.078 4.664-4.61-.067-2.161 3.072-1.487 2.501.334-.145.462-.664.896-1.333.832-1.357 1.277-2.813 2.813-4.11 4.111-.171.171-.48.304-.445.557 1.887-.688 3.834-1.315 5.83-1.891 1.367-2.205 2.749-4.397 4.114-6.608l-2.778-2.722zm0 0" fill="#3A434E" sketch:type="MSShapeGroup"/></g></svg>
